icons/svg/16x16/new window/outline.svg

<svg width="16" height="16" fill="none" xmlns="http://www.w3.org/2000/svg">
  <path fill-rule="evenodd" clip-rule="evenodd" d="M12 13H4a1 1 0 01-1-1V7h10v5a1 1 0 01-1 1zM4 3h8a1 1 0 011 1v1H3V4a1 1 0 011-1zm8-2H4C2.346 1 1 2.346 1 4v8c0 1.654 1.346 3 3 3h8c1.654 0 3-1.346 3-3V4c0-1.654-1.346-3-3-3z" fill="#000"/>
</svg>

<svg xmlns="http://www.w3.org/2000/svg" width="16" height="16" viewBox="0 0 16 16">
  <path fill-rule="evenodd" d="M12,13 L4,13 C3.448,13 3,12.552 3,12 L3,7 L13,7 L13,12 C13,12.552 12.552,13 12,13 M4,3 L12,3 C12.552,3 13,3.448 13,4 L13,5 L3,5 L3,4 C3,3.448 3.448,3 4,3 M12,1 L4,1 C2.346,1 1,2.346 1,4 L1,12 C1,13.654 2.346,15 4,15 L12,15 C13.654,15 15,13.654 15,12 L15,4 C15,2.346 13.654,1 12,1"/>
</svg>
